src/Pure/16/symbolic/actions/builder-unit-tests-fail-symbolic.svg

<?xml version="1.0" encoding="UTF-8" standalone="no"?>
<svg
   width="16px"
   height="16px"
   version="1.1"
   viewBox="0 0 16 16"
   id="svg3"
   sodipodi:docname="builder-unit-tests-fail-symbolic.svg"
   inkscape:version="1.4.2 (ebf0e940d0, 2025-05-08)"
   xmlns:inkscape="http://www.inkscape.org/namespaces/inkscape"
   xmlns:sodipodi="http://sodipodi.sourceforge.net/DTD/sodipodi-0.dtd"
   xmlns="http://www.w3.org/2000/svg"
   xmlns:svg="http://www.w3.org/2000/svg">
  <defs
      id="defs3">
      <style id="current-color-scheme" type="text/css">
          .ColorScheme-Text { color:#363636; }
          .ColorScheme-NeutralText { color:#f67400; }
      </style>
  </defs>
  <sodipodi:namedview
     id="namedview3"
     pagecolor="#ffffff"
     bordercolor="#000000"
     borderopacity="0.25"
     inkscape:showpageshadow="2"
     inkscape:pageopacity="0.0"
     inkscape:pagecheckerboard="0"
     inkscape:deskcolor="#d1d1d1"
     inkscape:zoom="17.567184"
     inkscape:cx="-3.8993159"
     inkscape:cy="8.6240344"
     inkscape:window-width="1920"
     inkscape:window-height="1010"
     inkscape:window-x="0"
     inkscape:window-y="0"
     inkscape:window-maximized="1"
     inkscape:current-layer="svg3" />
  <path
     id="path1"
     style="fill:#f67400"
     class="warning"
     d="M 8.0117188 0 C 7.2665587 0 6.6315219 0.39794063 6.2949219 0.99414062 C 6.2910119 0.99411788 6.2871121 0.99411788 6.2832031 0.99414062 L 0.25195312 12.123047 C 0.24702413 12.155987 0.20898437 12.222656 0.20898438 12.222656 C -0.10075563 12.818846 -0.078720625 13.513075 0.31835938 14.109375 C 0.67128937 14.606205 1.3584562 15.003906 1.9726562 15.003906 L 14.080078 15.003906 C 14.743488 15.003906 15.399547 14.605966 15.748047 14.009766 C 16.012507 13.612306 16.025968 13.115951 15.929688 12.619141 C 15.928287 12.482051 15.898377 12.347696 15.841797 12.222656 C 15.832497 12.188976 15.821414 12.155567 15.808594 12.123047 L 9.7324219 0.99414062 C 9.7304719 0.99413494 9.7285125 0.99413493 9.7265625 0.99414062 C 9.3774125 0.39794063 8.6908187 -1.4802974e-16 8.0117188 0 z M 8.0117188 0.99414062 L 8.0136719 0.99414062 C 8.3647598 0.99495444 8.6795934 1.1927563 8.8535156 1.4902344 L 14.929688 12.619141 C 15.069207 12.917231 15.067795 13.215582 14.890625 13.513672 C 14.748715 13.811762 14.431528 14.009766 14.080078 14.009766 L 1.9746094 14.009766 C 1.6222094 14.009766 1.3407656 13.812001 1.1660156 13.613281 C 0.99125562 13.315191 0.99283563 12.917251 1.1347656 12.619141 L 7.1660156 1.4902344 C 7.3431712 1.1922022 7.6593805 0.99421773 8.0117188 0.99414062 z M 8 4 C 7.446 4 7 4.446 7 5 L 7 9 C 7 9.554 7.446 10 8 10 C 8.554 10 9 9.554 9 9 L 9 5 C 9 4.446 8.554 4 8 4 z M 8 11 A 1 1 0 0 0 7 12 A 1 1 0 0 0 8 13 A 1 1 0 0 0 9 12 A 1 1 0 0 0 8 11 z " />
</svg>

<svg width="16px" height="16px" version="1.1" viewBox="0 0 16 16" xmlns="http://www.w3.org/2000/svg">
 <path class="warning" d="m8.0123 0c-0.74516 0-1.3802 0.39746-1.7168 0.99366-0.00391-2.274e-5 -0.00781-2.274e-5 -0.011719 0l-6.0312 11.129c-0.004929 0.03294-0.044057 0.09937-0.044057 0.09937-0.30974 0.59619-0.28662 1.2917 0.11046 1.888 0.35293 0.49683 1.0401 0.89429 1.6543 0.89429h12.107c0.66341 0 1.3195-0.39746 1.668-0.99366 0.26446-0.39746 0.27792-0.89429 0.18164-1.3911-0.0014-0.13709-0.03131-0.27242-0.08789-0.39746-0.0093-0.03368-0.02038-0.06685-0.0332-0.09937l-6.0762-11.129c-0.00195-5.69e-6 -0.00391-5.69e-6 -0.00586 0-0.34915-0.5962-1.0357-0.99366-1.7148-0.99366zm0 0.99366c0.35196 0 0.66752 0.19874 0.8418 0.49683l6.0762 11.129c0.13952 0.29809 0.13811 0.5962-0.03906 0.89429-0.14191 0.29809-0.4591 0.49683-0.81055 0.49683h-12.107c-0.3524 0-0.63384-0.19874-0.80859-0.39746-0.17476-0.29809-0.17318-0.69555-0.03125-0.99366l6.0312-11.129c0.17719-0.29809 0.49524-0.49683 0.84766-0.49683z" fill="#363636"/>
 <path class="warning" d="m8 4c0.554 0 1 0.446 1 1v4c0 0.554-0.446 1-1 1s-1-0.446-1-1v-4c0-0.554 0.446-1 1-1z" fill="#363636"/>
 <path class="warning" d="m9 12a1 1 0 0 1-1 1 1 1 0 0 1-1-1 1 1 0 0 1 1-1 1 1 0 0 1 1 1z" fill="#363636"/>
</svg>
